app/images/icons/instagram.svg

<svg width="48" height="48" viewBox="0 0 48 48" fill="none" xmlns="http://www.w3.org/2000/svg">
<path d="M24.0007 6.54541C19.2605 6.54541 18.6656 6.56614 16.8038 6.65087C14.9457 6.73596 13.6774 7.03014 12.5676 7.46177C11.4196 7.90759 10.4458 8.50396 9.47568 9.4745C8.5048 10.4447 7.90846 11.4185 7.4612 12.5661C7.02848 13.6763 6.73395 14.945 6.65031 16.8025C6.56704 18.6643 6.54523 19.2596 6.54523 24C6.54523 28.7403 6.56632 29.3334 6.65068 31.1952C6.73613 33.0534 7.0303 34.3218 7.46156 35.4316C7.90773 36.5796 8.50408 37.5534 9.47459 38.5236C10.4444 39.4945 11.4182 40.0923 12.5654 40.5381C13.6759 40.9698 14.9446 41.264 16.8024 41.349C18.6641 41.4338 19.2587 41.4545 23.9985 41.4545C28.7391 41.4545 29.3322 41.4338 31.1939 41.349C33.0521 41.264 34.3218 40.9698 35.4324 40.5381C36.58 40.0923 37.5523 39.4945 38.5221 38.5236C39.493 37.5534 40.0893 36.5796 40.5366 35.432C40.9656 34.3218 41.2602 33.053 41.3474 31.1956C41.4311 29.3338 41.4529 28.7403 41.4529 24C41.4529 19.2596 41.4311 18.6647 41.3474 16.8029C41.2602 14.9447 40.9656 13.6763 40.5366 12.5665C40.0893 11.4185 39.493 10.4447 38.5221 9.4745C37.5512 8.50359 36.5803 7.90723 35.4313 7.46177C34.3186 7.03014 33.0495 6.73596 31.1914 6.65087C29.3296 6.56614 28.7369 6.54541 23.9952 6.54541H24.0007ZM22.4349 9.69086C22.8996 9.69014 23.4182 9.69086 24.0007 9.69086C28.6609 9.69086 29.2133 9.70759 31.0536 9.79123C32.7553 9.86905 33.6789 10.1534 34.2942 10.3923C35.1087 10.7087 35.6894 11.0869 36.3 11.6978C36.9109 12.3087 37.289 12.8905 37.6061 13.705C37.845 14.3196 38.1297 15.2432 38.2072 16.945C38.2908 18.785 38.309 19.3378 38.309 23.996C38.309 28.6541 38.2908 29.2069 38.2072 31.0469C38.1294 32.7487 37.845 33.6723 37.6061 34.2869C37.2897 35.1014 36.9109 35.6814 36.3 36.292C35.6891 36.9029 35.1091 37.281 34.2942 37.5974C33.6797 37.8374 32.7553 38.121 31.0536 38.1989C29.2136 38.2825 28.6609 38.3007 24.0007 38.3007C19.3401 38.3007 18.7878 38.2825 16.9478 38.1989C15.2461 38.1203 14.3224 37.836 13.7068 37.597C12.8923 37.2807 12.3105 36.9025 11.6996 36.2916C11.0887 35.6807 10.7106 35.1003 10.3935 34.2854C10.1546 33.6709 9.86985 32.7472 9.7924 31.0454C9.70877 29.2054 9.69204 28.6527 9.69204 23.9916C9.69204 19.3305 9.70877 18.7807 9.7924 16.9407C9.87022 15.2389 10.1546 14.3152 10.3935 13.7C10.7098 12.8854 11.0887 12.3036 11.6996 11.6927C12.3105 11.0818 12.8923 10.7036 13.7068 10.3865C14.3221 10.1465 15.2461 9.86286 16.9478 9.78468C18.558 9.71196 19.1819 9.69014 22.4349 9.6865V9.69086ZM33.3175 12.589C32.1612 12.589 31.223 13.5261 31.223 14.6829C31.223 15.8392 32.1612 16.7774 33.3175 16.7774C34.4738 16.7774 35.412 15.8392 35.412 14.6829C35.412 13.5265 34.4738 12.5883 33.3175 12.5883V12.589ZM24.0007 15.0363C19.0507 15.0363 15.0373 19.0498 15.0373 24C15.0373 28.9501 19.0507 32.9618 24.0007 32.9618C28.9507 32.9618 32.9626 28.9501 32.9626 24C32.9626 19.0498 28.9504 15.0363 24.0003 15.0363H24.0007ZM24.0007 18.1818C27.2137 18.1818 29.8187 20.7865 29.8187 24C29.8187 27.213 27.2137 29.8181 24.0007 29.8181C20.7873 29.8181 18.1827 27.213 18.1827 24C18.1827 20.7865 20.7873 18.1818 24.0007 18.1818Z" fill="white"/>
</svg>

<svg width="48" height="48" fill="none" xmlns="http://www.w3.org/2000/svg"><path d="M24 6.545c-4.74 0-5.334.021-7.196.106-1.858.085-3.127.38-4.236.81a8.546 8.546 0 00-3.092 2.014 8.569 8.569 0 00-2.015 3.091c-.433 1.11-.727 2.379-.81 4.236-.084 1.862-.106 2.458-.106 7.198s.021 5.333.106 7.195c.085 1.858.38 3.127.81 4.237a8.553 8.553 0 002.014 3.092 8.547 8.547 0 003.09 2.014c1.11.432 2.38.726 4.237.811 1.862.085 2.457.106 7.197.106s5.333-.021 7.195-.106c1.858-.085 3.128-.38 4.238-.81a8.54 8.54 0 003.09-2.015 8.57 8.57 0 002.015-3.092c.429-1.11.723-2.379.81-4.236.084-1.862.106-2.456.106-7.196s-.022-5.335-.106-7.197c-.087-1.858-.381-3.127-.81-4.237a8.567 8.567 0 00-2.015-3.091 8.53 8.53 0 00-3.09-2.013c-1.113-.432-2.383-.726-4.24-.811-1.862-.085-2.455-.106-7.197-.106h.006zm-1.565 3.146H24c4.66 0 5.212.017 7.053.1 1.701.078 2.625.362 3.24.601a5.4 5.4 0 012.006 1.306c.61.61.989 1.192 1.306 2.007.239.615.524 1.538.601 3.24.084 1.84.102 2.393.102 7.051s-.018 5.21-.102 7.05c-.078 1.703-.362 2.626-.6 3.24a5.398 5.398 0 01-1.307 2.006c-.61.61-1.19.989-2.006 1.305-.614.24-1.539.524-3.24.602-1.84.084-2.393.102-7.053.102s-5.213-.019-7.053-.102c-1.702-.079-2.626-.363-3.241-.602a5.405 5.405 0 01-2.007-1.305 5.41 5.41 0 01-1.306-2.007c-.24-.614-.524-1.538-.602-3.24-.083-1.84-.1-2.392-.1-7.053 0-4.662.017-5.211.1-7.051.078-1.702.363-2.626.601-3.241a5.407 5.407 0 011.307-2.007 5.39 5.39 0 012.007-1.306c.615-.24 1.54-.524 3.24-.602 1.611-.073 2.235-.095 5.488-.098v.004zm10.883 2.898a2.094 2.094 0 10-.001 4.19 2.094 2.094 0 000-4.19zM24 15.036a8.964 8.964 0 000 17.926A8.961 8.961 0 0032.963 24 8.963 8.963 0 0024 15.036zm0 3.146a5.818 5.818 0 110 11.636 5.818 5.818 0 010-11.636z" fill="#fff"/></svg>
